icons/eye-16.svg

<svg width="16" height="16" viewBox="0 0 16 16" xmlns="http://www.w3.org/2000/svg">
  <path fill-rule="evenodd" clip-rule="evenodd" d="M1.67884 7.93165C2.09143 7.31094 2.9206 6.18152 4.0447 5.21477C5.17567 4.2421 6.52738 3.5 8.00001 3.5C9.47264 3.5 10.8244 4.2421 11.9553 5.21477C13.0794 6.18152 13.9086 7.31094 14.3212 7.93165C14.35 7.975 14.35 8.025 14.3212 8.06835C13.9086 8.68906 13.0794 9.81848 11.9553 10.7852C10.8244 11.7579 9.47264 12.5 8.00001 12.5C6.52738 12.5 5.17567 11.7579 4.0447 10.7852C2.9206 9.81848 2.09143 8.68906 1.67884 8.06835C1.65002 8.025 1.65002 7.975 1.67884 7.93165ZM8.00001 2C6.01865 2 4.32919 2.99167 3.06662 4.07751C1.79718 5.16926 0.880454 6.42307 0.429635 7.10129C0.0664231 7.64771 0.0664245 8.35229 0.429635 8.89871C0.880455 9.57693 1.79718 10.8307 3.06662 11.9225C4.32919 13.0083 6.01865 14 8.00001 14C9.98137 14 11.6708 13.0083 12.9334 11.9225C14.2028 10.8307 15.1196 9.57693 15.5704 8.89871C15.9336 8.35229 15.9336 7.64771 15.5704 7.10129C15.1196 6.42307 14.2028 5.16926 12.9334 4.07751C11.6708 2.99167 9.98137 2 8.00001 2ZM8 10C9.10457 10 10 9.10457 10 8C10 6.89543 9.10457 6 8 6C6.89543 6 6 6.89543 6 8C6 9.10457 6.89543 10 8 10Z"/>
</svg>

<svg xmlns="http://www.w3.org/2000/svg" width="16" height="16" viewBox="0 0 16 16"><path fill-rule="evenodd" d="M1.679 7.932c.412-.621 1.242-1.75 2.366-2.717C5.175 4.242 6.527 3.5 8 3.5c1.473 0 2.824.742 3.955 1.715 1.124.967 1.954 2.096 2.366 2.717a.119.119 0 010 .136c-.412.621-1.242 1.75-2.366 2.717C10.825 11.758 9.473 12.5 8 12.5c-1.473 0-2.824-.742-3.955-1.715C2.92 9.818 2.09 8.69 1.679 8.068a.119.119 0 010-.136zM8 2c-1.981 0-3.67.992-4.933 2.078C1.797 5.169.88 6.423.43 7.1a1.619 1.619 0 000 1.798c.45.678 1.367 1.932 2.637 3.024C4.329 13.008 6.019 14 8 14c1.981 0 3.67-.992 4.933-2.078 1.27-1.091 2.187-2.345 2.637-3.023a1.619 1.619 0 000-1.798c-.45-.678-1.367-1.932-2.637-3.023C11.671 2.992 9.981 2 8 2zm0 8a2 2 0 100-4 2 2 0 000 4z"/></svg>
